X: 99
T: The Tar Road to Sligo
C: Irish
R: jig
M: 6/8
K: D
|: g|"Bm"fdB Bcd|"A"ecA BAG|"D"FAA ABc|"G"dcd "A"efg|
"Bm"fdB Bcd |"A"ecA BAG|"D"FAA "A"Aag|"D"fdc d2 :|
B |"D"Adf Adf|"G"g3 efg|"D"afd "Bm"dcd|"Em"Bed "A"cBA|
"D"Adf Adf|"G"g3 efg|"D"afd "Em"bge|"A"edc "D"d2 B||
"D"Adf Adf|"G"g3 efg|"D"afd "Bm"dcd|"Em"Bed "A"cBA|
"D"fdB "Em"gec|"D"afd "G"bge|"A"a^ga bge|"A"edc "D"d2 |]
